X:194
T: Letzter Versuch
N: A0232A
O: Europa, Mitteleuropa, Deutschland
N: J. Ott 1544 No. 7, Forster III. 1549 No. 60.
R: Romanze, Ballade, Lied
M: 4/2
L: 1/4
K: F
c4c2c2 | c2c2B2c2 | A4F4
A3Bc2d2- | d2c4B2 | A8
c4c2c2 | c2c2B2c2 | A4F4
A2Bcd2c2 | c2BAG2G2 | F8

